!!!COM: Michael Altenburg
!!!OTL: Macht auf die Tor der Grechtigkeit
!!!system-decoration: [s1,s2,s3]
**kern	**kern	**kern	**text	**text	**text	**kern	**kern	**kern	**text	**text	**text	**kern	**kern	**kern	**text	**text	**text
*part3	*part3	*part3	*part3	*part3	*part3	*part2	*part2	*part2	*part2	*part2	*part2	*part1	*part1	*part1	*part1	*part1	*part1
*staff9	*staff8	*staff7	*staff7	*staff7	*staff7	*staff6	*staff5	*staff4	*staff4	*staff4	*staff4	*staff3	*staff2	*staff1	*staff1	*staff1	*staff1
*I"T./B.	*	*	*	*	*	*I"S.2/A.	*	*	*	*	*	*I"S1.	*	*	*	*	*
*clefF4	*	*	*	*clefG2	*	*	*	*clefG2	*	*	*
*M6/4	*	*	*	*M6/4	*	*	*	*M6/4	*	*	*
*^	*	*	*	*^	*	*	*	*	*	*	*
4A	4AA	.	.	.	4e	4c	Macht	Gott	Heut	4a	Macht	Gott	Heut
4A	4AA	.	.	.	4e	4c	auf	sei	gehn	4a	auf	sei	gehn
4A	4AA	.	.	.	4e	4c	die	ge-	wir	4a	die	ge-	wir
2G	2E	.	.	.	2e	2B	Tor	preist	aus	2b	Tor	preist	aus
4c	4C	.	.	.	4g	4e	der	und	dem	4cc	der	und	dem
=2	=2	=2	=2	=2	=2	=2	=2	=2	=2	=2	=2	=2	=2
2B	2G	.	.	.	2g	2d	Grech-	hoch	Ker-	2dd	Grech-	hoch	Ker-
4d	4GG	.	.	.	4g	4d	tig-	ge-	ker	4b	tig-	ge-	ker
!LO:TX:a:i:t=,	!	!	!	!	!LO:TX:a:i:t=,	!	!	!	!	!LO:TX:a:i:t=,	!	!	!
2.c	2.C	.	.	.	2.g	2.e	keit,	ehrt,	los,	2.cc	keit,	ehrt,	los,
=3	=3	=3	=3	=3	=3	=3	=3	=3	=3	=3	=3	=3	=3
4c	4C	.	.	.	4g	4e	der	der	der	4cc	der	der	der
4c	4C	.	.	.	4g	4e	Herr	Höl-	Teu-	4cc	Herr	Höl-	Teu-
4c	4C	.	.	.	4cc	4g	kommt	le	fel	4ee	kommt	le	fel
2d	2G	.	.	.	2b	2g	wie-	Pfor-	selbst	2dd	wie-	Pfor-	selbst
4d	4D	.	.	.	4a	4f	der	ten	uns	4dd	der	ten	uns
=4	=4	=4	=4	=4	=4	=4	=4	=4	=4	=4	=4	=4	=4
2A	4A	.	.	.	4a	4e	aus	sind	fürch-	4cc	aus	sind	fürch-
.	2E	.	.	.	2ee	2e	dem	zer-	ten	2b	dem	zer-	ten
4G#	.	.	.	.	.	.	.	.	.	.	.	.	.
2.A	2.AA	.	.	.	2.cc#	2.e	Streit.	stört,	muß.	2.a	Streit.	stört,	muß.
!!LO:LB
=5:|!	=5:|!	=5:|!	=5:|!	=5:|!	=5:|!	=5:|!	=5:|!	=5:|!	=5:|!	=5:|!	=5:|!	=5:|!	=5:|!
!LO:TX:iB:t=1. 2. 3.	!	!	!	!	!LO:TX:iB:t=1. 2. 3.	!	!	!	!	!	!	!	!
2c	2AA	Laßt	der	Un-	2a	2e	Laßt	der	Un-	.	.	.	.
4B	4E	uns	Him-	se-	4g#	4e	uns	Him-	se-	.	.	.	.
4d	4D	mit	mel	re	4a	4f	mit	mel	re	.	.	.	.
!LO:TX:a:i:t=Freu--------------------den stim---men an,	!	!	!	!	!	!	!	!	!	!	!	!	!
(>4.G	(<8GL	Freu-	steht	Wehr	(>8bL	(<(<4d	Freu-	steht	Wehr	.	.	.	.
.	8F	.	.	.	8a	.	.	.	.	.	.	.	.
.	8E	.	.	.	8gn	2e)	.	.	.	.	.	.	.
16AL	8DJ	.	.	.	8f#J	.	.	.	.	.	.	.	.
16BJ	.	.	.	.	.	.	.	.	.	.	.	.	.
4c))	4C	.	.	.	4e)	.	.	.	.	.	.	.	.
[4d	8BBL	.	.	.	4f#y	8dL	.	.	.	.	.	.	.
.	8AAJ	.	.	.	.	8cJ	.	.	.	.	.	.	.
=6	=6	=6	=6	=6	=6	=6	=6	=6	=6	=6	=6	=6	=6
!!Warning: measure 6, staff 1 padded. adding token 1.ryy at end ot measure to extend its duration.
!!Error: measure 6 staff 3 is overfilled: 8 quarter notes instead of 6.
!!Error: measure 6 staff 2 is overfilled: 8 quarter notes instead of 6.
!!Error: measure 6, staff 1 is underfilled: adding token 1ryy at end of measure to complete its duration.
!	!	!	!	!	!	!	!	!	!	!LO:TX:i:t=Freu------------------den stim----------------men an,	!	!	!
4d]	4GG	.	.	.	(>8gL	4B)	.	.	.	2g	laßt	die	und
.	.	.	.	.	8f#J	.	.	.	.	.	.	.	.
4A	4AA	den	uns	ist	2e)	4c	den	uns	ist	.	.	.	.
2F#	4.BB	stim-	of-	Got-	.	4B	stim-	of-	Got-	1.ryy	.	.	.
.	.	.	.	.	4d#	4B	men	fen	tes	.	.	.	.
.	8BB	men	fen	tes	.	.	.	.	.	.	.	.	.
!LO:TX:a:i:t=,	!	!	!	!	!	!	!	!	!	!	!	!	!
!LO:TX:a:i:t=,	!	!	!	!	!	!	!	!	!	!	!	!	!
2G#	2E	an,	wieder,	Hut,	2e	2B	an,	wieder,	Hut	.	.	.	.
2E	4r	.	.	.	2e	2B	laßt	die	und	.	.	.	.
.	4E	laßt	die	und	.	.	.	.	.	.	.	.	.
!!LO:LB
=7	=7	=7	=7	=7	=7	=7	=7	=7	=7	=7	=7	=7	=7
!LO:TX:iB:t=3.	!	!	!	!	!	!	!	!	!	!LO:TX:iB:t=1. 2. 3.	!	!	!
!LO:TX:iB:t=2.	!	!	!	!	!	!	!	!	!	!	!	!	!
2A	2AA	.	.	.	2e	2c	sin-	En-	un-	2a	sin-	En-	un-
!LO:TX:iB:t=1.	!	!	!	!	!	!	!	!	!	!	!	!	!
4D	2GG	.	.	.	2g	2d	gen	gel	ser	2b	gen	gel	ser
2G	.	.	.	.	.	.	.	.	.	.	.	.	.
.	4.C	.	.	.	4g	4.e	mit,	Got-	Trost	4.cc	mit,	Got-	Trost
4G	.	.	.	.	4ee	.	wer	tes	ist	.	.	.	.
.	8C	.	.	.	.	8g	.	.	.	8cc	wer	tes	ist
4d	4GG	.	.	.	4dd	4g	sin-	fah-	Chri-	4b	sin-	fah-	Chri-
!	!	!	!	!	!	!	!	!	!	!LO:TX:a:iB:t=Macht auf die Tor der Grechtigkeit/Altenburg	!	!	!
4A	4AA	.	.	.	4cc	4e	gen	ren	sti	4a	gen	ren	sti
=8	=8	=8	=8	=8	=8	=8	=8	=8	=8	=8	=8	=8	=8
2B	2EE	.	.	.	2b	2e	kann,	nieder,	Blut,	2g#	kann,	nieder,	Blut,
4r	4r	.	.	.	4r	4r	.	.	.	4r	.	.	.
4B	4EE	.	.	.	4b	4e	wir	freun	sein	4ee	wir	freun	sein
(<(<2B	2BB	.	.	.	2b	(<2f#	haben	sich	Geist	2dd#	haben	sich	Geist
2B))	2E	.	.	.	2b	2g#)	nun	mit	und	2ee	nun	mit	und
=9	=9	=9	=9	=9	=9	=9	=9	=9	=9	=9	=9	=9	=9
2A	2AA	.	.	.	2cc	2a	wie-	uns	Sieg	2ee	wie-	uns	Sieg
2.A	2.D	.	.	.	2.a	(<2.f	der	als	stärkt	2.dd	der	als	stärkt
4A	4AA	.	.	.	2a	4e)	den	uns-	uns	4cc	den	uns-	uns
2B	2E	.	.	.	.	2e	.	.	.	2b	Siegs-	re	den
.	.	.	.	.	4g#	.	Siegs-	re	den	.	.	.	.
=10	=10	=10	=10	=10	=10	=10	=10	=10	=10	=10	=10	=10	=10
!LO:TX:a:i:t=,	!	!	!	!	!LO:TX:a:i:t=,	!	!	!	!	!LO:TX:a:i:t=,	!	!	!
1A	1AA	.	.	.	1a	1e	mann.	Brüder.	Mut.	1cc#	mann.	Brüder.	Mut.
!!LO:LB
=11	=11	=11	=11	=11	=11	=11	=11	=11	=11	=11	=11	=11	=11
!	!	!	!	!	!	!	!	!	!	!LO:TX:iB:t=1. 2. 3.	!	!	!
4c#	4A	.	.	.	4a	4e	Machts	Rühmt	Sin-	4cc#	Machts	Rühmt	Sin-
!	!	!	!	!	!LO:TX:iB:t=1. 2. 3.	!	!	!	!	!	!	!	!
4e	4A	.	.	.	4a	4e	präch-	und	get	4cc#y	präch-	und	get
4d	4D	.	.	.	4a	4f#	tig,	ehrt,	all	4dd	tig,	ehrt,	all
=12	=12	=12	=12	=12	=12	=12	=12	=12	=12	=12	=12	=12	=12
8d	8G	.	.	.	8g	8g	er	Gott	mit	8b	er	Gott	mit
8d	8G	.	.	.	8dd	8g	ist	Lob	sü-	8b	ist	Lob	sü-
4d	4G	.	.	.	4dd	4g	mäch-	ver-	ßen	4b	mäch-	ver-	ßen
!LO:TX:a:i:t=,	!	!	!	!	!	!	!	!	!	!LO:TX:a:i:t=,	!	!	!
!LO:TX:a:i:t=,	!	!	!	!	!	!	!	!	!	!	!	!	!
4c	4C	.	.	.	4ee	4g	tig,	mehrt,	Schall,	4cc	tig,	mehrt,	Schall,
4c	4.C	.	.	.	4ee	4g	machts	machts	lo-	4cc	machts	machts	lo-
4c	.	.	.	.	4cc	4g	ehr-	auf	bet	4ee	ehr-	auf	bet
.	8c	.	.	.	.	.	.	.	.	.	.	.	.
4d	4G	.	.	.	4b	4g	lich,	best	Gott	4dd	lich,	best	Gott
=13	=13	=13	=13	=13	=13	=13	=13	=13	=13	=13	=13	=13	=13
8A	2r	.	.	.	8ee	8a	er	an	weg	8cc	er	an	weg
8E	.	.	.	.	8ee	8g	ist	die-	ist	8b	ist	die-	ist
4A	.	.	.	.	4dd#	4f#	herr-	sem	die	4b	herr-	sem	die
4E	4r	.	.	.	4ee	4g	lich;	Fest;	Not;	4b	lich:	Fest;	Not;
!!LO:LB
=	=	=	=	=	=	=	=	=	=	=	=	=	=
!LO:TX:iB:t=1.3.	!	!	!	!	!	!	!	!	!	!LO:TX:iB:t=1.3.	!	!	!
4G	4C	.	.	.	4ee	4g	jub-	.	.	4cc	jub-	.	.
4.B	4G	.	.	.	4dd	4g	liert	.	.	4b	liert	.	.
.	4E	.	.	.	4ee	4g	und	.	.	4g	und	.	.
8c	.	.	.	.	.	.	.	.	.	.	.	.	.
*	*	*	*	*	*v	*v	*	*	*	*	*	*	*
.	2F	.	.	.	.	.	.	.	.	.	.	.
.	4G	.	.	.	.	.	.	.	.	.	.	.
=14	=14	=14	=14	=14	=14	=14	=14	=14	=14	=14	=14	=14
*	*	*	*	*	*^	*	*	*	*	*	*	*
.	.	.	.	.	2cc	2f	laßt	.	.	2a	laßt	.	.
.	.	.	.	.	4g	4d	Gott	.	.	4b	Gott	.	.
*v	*v	*	*	*	*	*	*	*	*	*	*	*	*
.	.	.	.	4g	4e	wal-	.	.	4cc	wal-	.	.
.	.	.	.	4g	4e	ten,	.	.	4cc	ten,	.	.
.	.	.	.	4r	4r	.	.	.	4r	.	.	.
=15	=15	=15	=15	=15	=15	=15	=15	=15	=15	=15	=15	=15
*^	*	*	*	*	*	*	*	*	*	*	*	*
2A	4C	.	.	.	4g	4e	Christ	.	.	4cc	Christ	.	.
.	4C	.	.	.	4b	4g	hat	.	.	4b	hat	.	.
4d	4r	.	.	.	4a	4e	den	.	.	4cc	den	.	.
4c	4C	.	.	.	4.f	4.d	Sieg	.	.	4.dd	Sieg	.	.
4c	4GG	.	.	.	.	.	.	.	.	.	.	.	.
.	.	.	.	.	8a	8e	er-	.	.	8cc	er-	.	.
4r	4AA	.	.	.	4g#	4e	hal-	.	.	4b	hal-	.	.
=16	=16	=16	=16	=16	=16	=16	=16	=16	=16	=16	=16	=16	=16
!!Warning: measure 0, staff 3 padded. adding token 2ryy at end ot measure to extend its duration.
!!Error: measure 0 staff 2 is overfilled: 8 quarter notes instead of 6.
!!Error: measure 0 staff 1 is overfilled: 8 quarter notes instead of 6.
4c	4.D	.	.	.	0a	0e	ten.	.	.	0cc#	ten.	.	.
4d	.	.	.	.	.	.	.	.	.	.	.	.	.
.	8AA	.	.	.	.	.	.	.	.	.	.	.	.
4A	4E	.	.	.	.	.	.	.	.	.	.	.	.
4.A	0AA	.	.	.	.	.	.	.	.	.	.	.	.
8A	.	.	.	.	.	.	.	.	.	.	.	.	.
4B	.	.	.	.	.	.	.	.	.	.	.	.	.
2ryy	.	.	.	.	.	.	.	.	.	.	.	.	.
*v	*v	*	*	*	*	*	*	*	*	*	*	*	*
*	*	*	*	*v	*v	*	*	*	*	*	*	*
==	==	==	==	==	==	==	==	==	==	==	==
*-	*-	*-	*-	*-	*-	*-	*-	*-	*-	*-	*-
!!!RDF**kern: > = above
!!!RDF**kern: < = below
